X:2535
T:Polska (allmän) - Svenska Fackeldansen
T:Svenska Folkdansar H4 nr 13
B:Traditioner av Svenska Folkdansar Häfte 4, nr 13
B:Jämför [[http://www.smus.se/earkiv/fmk/browselarge.php?lang=sw&katalogid=Upprop+22&bildnr=00108|SMUS - katalog Upprop22 bild 108]] upptecknad av [[Personer/Karl Petter Leffler]].
B:Jämför [[http://www.smus.se/earkiv/fmk/browselarge.php?lang=sw&katalogid=%C5n+1&bildnr=00093|SMUS - katalog Ån1 bild 93]]
R:Polska
Z:Nils L
L:1/8
M:3/4
L:1/8
K:C
CC/C/ EC EC | EE/E/ GE GE | GG/G/ c2 e2 | (e/d/c/d/) d2 c2 ::
ef/e/ dd/d/ dd | ef/e/ dd/d/ dd | ed/e/ ff ee | (e/d/c/d/) (d2 c2) :|
(:musicend:)
(:music:)
